tools/download-figma-icons/icons/solid/connector-type2.svg

<svg width="24" height="24" viewBox="0 0 24 24" fill="none" xmlns="http://www.w3.org/2000/svg">
<path fill-rule="evenodd" clip-rule="evenodd" d="M18 13.5C16.755 13.5 15.75 12.495 15.75 11.25C15.75 10.005 16.755 9 18 9C19.245 9 20.25 10.005 20.25 11.25C20.25 12.495 19.245 13.5 18 13.5ZM15 18.75C13.755 18.75 12.75 17.745 12.75 16.5C12.75 15.255 13.755 14.25 15 14.25C16.245 14.25 17.25 15.255 17.25 16.5C17.25 17.745 16.245 18.75 15 18.75ZM9.75 11.25C9.75 10.005 10.755 9 12 9C13.245 9 14.25 10.005 14.25 11.25C14.25 12.495 13.245 13.5 12 13.5C10.755 13.5 9.75 12.495 9.75 11.25ZM9 18.75C7.755 18.75 6.75 17.745 6.75 16.5C6.75 15.255 7.755 14.25 9 14.25C10.245 14.25 11.25 15.255 11.25 16.5C11.25 17.745 10.245 18.75 9 18.75ZM3.75 11.25C3.75 10.005 4.755 9 6 9C7.245 9 8.25 10.005 8.25 11.25C8.25 12.495 7.245 13.5 6 13.5C4.755 13.5 3.75 12.495 3.75 11.25ZM9 4.5C9.825 4.5 10.5 5.175 10.5 6C10.5 6.825 9.825 7.5 9 7.5C8.175 7.5 7.5 6.825 7.5 6C7.5 5.175 8.175 4.5 9 4.5ZM15 4.5C15.825 4.5 16.5 5.175 16.5 6C16.5 6.825 15.825 7.5 15 7.5C14.175 7.5 13.5 6.825 13.5 6C13.5 5.175 14.175 4.5 15 4.5ZM23.4075 6.5325C23.0625 5.445 22.56 4.41 21.9225 3.4575C21.6075 3 20.4825 1.5 18.9 1.5H5.1075C3.4875 1.5 2.3175 3.09 2.0025 3.5775C1.4025 4.4925 0.9225 5.49 0.5925 6.5325C0.195 7.755 0 9.0225 0 10.3125C0 12.255 0.465 14.19 1.335 15.9C3.4125 19.9725 7.5 22.5 12 22.5C16.5 22.5 20.5875 19.9725 22.665 15.9C23.535 14.19 24 12.255 24 10.3125C24 9.0225 23.805 7.755 23.4075 6.5325Z" fill="black"/>
</svg>

<svg xmlns="http://www.w3.org/2000/svg" width="24" height="24" fill="none" viewBox="0 0 24 24"><path fill="currentColor" fill-rule="evenodd" d="M18 13.5a2.247 2.247 0 0 1-2.25-2.25A2.247 2.247 0 0 1 18 9a2.247 2.247 0 0 1 2.25 2.25A2.247 2.247 0 0 1 18 13.5m-3 5.25a2.247 2.247 0 0 1-2.25-2.25A2.247 2.247 0 0 1 15 14.25a2.247 2.247 0 0 1 2.25 2.25A2.247 2.247 0 0 1 15 18.75m-5.25-7.5A2.247 2.247 0 0 1 12 9a2.247 2.247 0 0 1 2.25 2.25A2.247 2.247 0 0 1 12 13.5a2.247 2.247 0 0 1-2.25-2.25M9 18.75a2.247 2.247 0 0 1-2.25-2.25A2.247 2.247 0 0 1 9 14.25a2.247 2.247 0 0 1 2.25 2.25A2.247 2.247 0 0 1 9 18.75m-5.25-7.5A2.247 2.247 0 0 1 6 9a2.247 2.247 0 0 1 2.25 2.25A2.247 2.247 0 0 1 6 13.5a2.247 2.247 0 0 1-2.25-2.25M9 4.5c.825 0 1.5.675 1.5 1.5S9.825 7.5 9 7.5 7.5 6.825 7.5 6 8.175 4.5 9 4.5m6 0c.825 0 1.5.675 1.5 1.5s-.675 1.5-1.5 1.5-1.5-.675-1.5-1.5.675-1.5 1.5-1.5m8.407 2.032a12.1 12.1 0 0 0-1.485-3.074C21.609 3 20.482 1.5 18.9 1.5H5.108c-1.62 0-2.79 1.59-3.105 2.078-.6.914-1.08 1.912-1.41 2.955A12.2 12.2 0 0 0 0 10.313c0 1.942.465 3.877 1.335 5.587C3.413 19.973 7.5 22.5 12 22.5s8.587-2.527 10.665-6.6A12.4 12.4 0 0 0 24 10.313c0-1.29-.195-2.558-.593-3.78" clip-rule="evenodd"/></svg>
